source/img/icon-logo.svg

<svg width="52" height="24" viewBox="0 0 52 24" fill="none" xmlns="http://www.w3.org/2000/svg">
<path d="M44.4467 23H7.38286C7.02281 23 6.70276 22.7749 6.58612 22.4403L1.04553 6.55107C0.89515 6.1179 1.1294 5.64729 1.56947 5.49848C1.70443 5.45346 1.84517 5.44208 1.97579 5.46483C2.28042 5.48237 2.56431 5.66341 2.6959 5.95724C3.38082 7.48659 5.81733 12.4239 8.65968 12.4239C8.69487 12.4239 8.73053 12.423 8.76668 12.4211C10.4812 12.3462 13.1625 10.4007 16.2006 1.56302C16.3167 1.22654 16.6373 1 16.9983 1C17.3598 1 17.6803 1.22654 17.7965 1.56302C18.8337 4.5767 22.3104 12.3751 25.9206 12.3751C25.9302 12.3751 25.9394 12.3746 25.9495 12.3746C27.6611 12.3543 30.2928 10.4657 33.111 1.5815C33.2214 1.23507 33.5468 1 33.9155 1H33.9237C34.2958 1.00379 34.6211 1.24644 34.7243 1.59762C35.5856 4.51414 38.6405 12.1533 42.3876 12.4723C44.5768 12.6495 47.0042 10.2135 49.4007 5.4018C49.5954 5.00892 50.0687 4.83215 50.4799 5.00039C50.8901 5.16768 51.0983 5.61981 50.9547 6.03402L45.2439 22.4403C45.1268 22.7754 44.8068 23 44.4467 23ZM7.9844 21.3436H43.8442L47.1445 11.8623C45.5495 13.522 43.93 14.2623 42.2411 14.1229C38.0911 13.768 35.2434 7.888 33.9194 4.43168C31.5807 10.8505 28.9697 13.9959 25.9688 14.0305C25.9524 14.0305 25.937 14.0315 25.9206 14.0315C21.7267 14.0315 18.4891 7.70981 17.0224 4.22268C14.5198 10.7159 11.8341 13.9443 8.84139 14.076C7.30719 14.1343 5.97109 13.3827 4.82055 12.2675L7.9844 21.3436Z" fill="#A07B50" stroke="#1F1C1D" stroke-width="0.8"/>
</svg>

<svg width="52" height="24" fill="none" xmlns="http://www.w3.org/2000/svg"><path d="M44.447 23H7.383a.841.841 0 01-.797-.56L1.046 6.551a.826.826 0 01.523-1.053.837.837 0 01.407-.033.84.84 0 01.72.492c.685 1.53 3.121 6.467 5.964 6.467l.107-.003c1.714-.075 4.396-2.02 7.434-10.858A.842.842 0 0116.998 1c.362 0 .682.227.799.563 1.037 3.014 4.513 10.812 8.124 10.812h.029c1.711-.02 4.343-1.91 7.161-10.793A.841.841 0 0133.916 1h.008a.84.84 0 01.8.598c.862 2.916 3.917 10.555 7.664 10.874 2.189.178 4.616-2.258 7.013-7.07A.848.848 0 0150.48 5c.41.168.618.62.475 1.034L45.244 22.44a.842.842 0 01-.797.56zM7.984 21.344h35.86l3.3-9.482c-1.594 1.66-3.214 2.4-4.903 2.26-4.15-.354-6.998-6.234-8.322-9.69-2.338 6.418-4.95 9.564-7.95 9.598l-.048.002c-4.194 0-7.432-6.322-8.899-9.81-2.502 6.494-5.188 9.722-8.18 9.854-1.535.058-2.87-.693-4.021-1.809l3.163 9.077z" fill="#A07B50" stroke="#1F1C1D" stroke-width=".8"/></svg>
